X: 15895
T: Gráinne's
R: jig
M: 6/8
K: Gmajor
B|dGF GDB,|G,2G, DB,D|EcB A2G|FED cBA|
BdB GFG|EGE CEG|DFc ADF|AGF G3:|
A|B2A GBd|gfe B3|FAF faf|ed^c d^cc|
BdB Ggf|ecA E2E|DFc ADF|AGF G3:|
GBd gfg|ecA cBA|GBd a2g|fef def|
gdB Ggf|ecA E2E|DFc ADF|AGF G3:|

